public/illustrations/lightbulb.svg

<svg width="162" height="295" viewBox="0 0 162 295" fill="none" xmlns="http://www.w3.org/2000/svg">
<path d="M121.582 218.786C126.665 220.938 127.5 222.651 126.764 227.451C126.028 232.25 125.277 237.631 124.824 242.728C124.371 246.409 123.649 249.51 119.529 250.897C118.821 251.18 118.099 252.582 117.816 253.573C117.235 255.98 116.655 258.373 116.357 260.78C115.763 265.452 114.035 268.978 108.372 268.794L108.329 274.457C108.244 285.926 102.397 292.821 91.0558 294.308C87.6577 294.704 84.118 294.831 80.7199 294.52C72.3663 294.039 66.6038 289.182 64.3809 281.098C63.8287 279.115 63.4182 277.133 63.1491 275.137C63.1491 274.146 62.88 273.155 62.3137 272.305C61.7473 271.456 60.912 270.734 60.0625 270.45C58.6466 269.445 57.5281 267.888 57.1175 266.189C56.2822 263.782 55.73 261.219 55.192 258.812C54.4982 256.263 54.2433 253.573 51.4116 252.129C50.4204 251.28 49.7266 250.133 49.5992 248.859C48.2258 243.464 46.9799 238.084 45.7481 232.831C45.0543 229.858 46.357 227.309 47.9286 224.916C48.3533 224.067 49.7833 223.798 51.1991 223.104C51.1991 221.83 51.2134 220.697 50.9444 219.423C49.033 208.082 44.4455 197.434 37.4228 188.316C31.108 180.203 26.0675 171.538 23.5898 161.457C15.8733 130.535 22.5704 102.685 44.5305 79.9039C58.2219 65.7028 75.9627 59.4447 96.1812 62.5596C116.98 65.6745 132.611 76.4067 141.829 95.2943C145.878 103.393 148.228 112.185 148.88 121.105C149.531 130.025 148.328 139.087 145.439 147.695C141.829 158.994 135.811 169.146 130.643 179.736C127.628 185.527 125.037 191.587 122.729 197.661C120.421 204.585 121.355 211.664 121.879 218.899L121.596 218.757L121.582 218.786ZM102.468 219.932H104.875C110.397 219.989 111.26 218.856 110.864 213.334C109.929 203.99 111.558 194.504 115.72 186.037C120.166 176.862 124.909 167.97 129.497 158.951C136.392 145.118 140.314 130.705 137.44 115.116C133.079 91.0184 117.023 76.7466 96.6626 72.9238C80.2527 69.8372 65.7826 74.552 53.6769 85.086C39.1501 97.8712 32.0991 114.961 30.8248 134.061C29.4373 151.603 34.6902 168.919 45.7906 182.582C53.2381 191.842 58.1086 202.914 60.3032 214.538C60.7138 216.945 61.2659 219.352 61.804 222.056L69.1666 221.547C68.9117 217.865 68.6426 214.609 68.5293 211.494C68.0338 202.008 67.0993 192.507 68.1612 183.035C68.1753 180.911 68.8976 178.788 70.0444 176.82C71.1913 174.993 72.7628 173.294 74.6034 172.176C75.453 171.609 76.3166 171.057 76.883 170.207C77.4493 169.358 77.8883 168.367 78.1715 167.39C79.0493 163.284 79.6439 159.05 80.2386 154.944C80.2386 153.953 80.2385 153.104 79.8279 152.113C72.3238 152.764 68.501 152.467 64.8339 150.456C58.6324 147.299 56.5369 141.055 59.8359 134.853C60.558 133.438 61.5491 132.036 62.696 131.045C63.8428 129.926 65.2587 129.218 66.8162 128.666C68.3736 128.114 69.9311 127.972 71.6302 128.128C73.1876 128.128 74.8865 128.723 76.2882 129.431C79.389 131.144 82.3482 133.013 85.0242 135.151C85.449 134.584 85.888 134.018 86.1711 133.466C87.318 130.648 88.479 127.817 89.4842 124.857C90.4895 121.884 92.9105 120.355 95.7422 120.935C98.4324 121.658 99.6926 123.654 99.5227 126.769C99.5227 127.618 99.2253 128.468 98.9421 129.317C97.6395 134.4 95.1901 139.2 91.7637 143.292C91.0558 144.141 90.6169 145.118 90.3337 146.109C90.0505 147.101 90.0364 148.233 90.3195 149.224C90.5744 152.481 90.7017 155.879 90.2487 159.135C89.9372 162.534 89.2152 165.931 88.6206 169.599C96.8326 170.505 99.1971 176.466 100.132 183.276C100.811 187.665 101.066 192.196 101.462 196.741C101.972 204.386 102.213 211.89 102.723 219.833L102.439 219.975L102.468 219.932ZM116.131 229.645L55.9423 232.491L58.5617 243.691L114.644 240.958C115.097 237.135 115.692 233.595 116.131 229.645ZM92.1319 219.862C91.6222 211.366 91.2541 203.013 90.7444 194.504C90.4895 190.964 90.0788 187.283 89.5407 183.871C89.4133 182.738 88.578 180.756 87.8701 180.742C85.18 180.444 82.4899 180.557 79.9413 181.109C77.9591 181.662 77.9449 183.927 77.9307 185.626C77.8882 191.998 77.8457 198.51 78.0864 204.882C78.3271 210.262 78.8652 215.784 79.3891 221.178L92.146 219.848L92.1319 219.862ZM97.1723 269.587L72.6637 270.974C73.2159 273.806 73.6264 276.071 74.1644 278.492C74.4335 280.05 75.1415 281.466 76.2601 282.471C77.3928 283.476 78.9361 284.043 80.4935 284.198C84.4579 284.227 88.4222 284.255 92.3866 283.717C93.5193 283.59 94.6521 283.023 95.5158 282.188C96.3795 281.352 96.9458 280.361 97.229 279.229C98.3758 276.128 98.4042 272.73 97.2998 269.601H97.1581L97.1723 269.587ZM66.0799 261.304L106.305 258.883L107.636 251.535L64.0128 253.644L65.9384 261.304H66.0799ZM68.3169 140.687C69.4496 141.55 70.5683 141.975 71.9841 142.273C73.2584 142.428 74.6742 142.287 75.8069 141.735C72.154 137.6 70.455 137.444 68.4445 140.687H68.3027H68.3169Z" fill="#102185"/>
<path d="M63.7859 36.4511C63.7717 39.566 62.6249 41.534 60.487 42.0862C59.4959 42.3694 58.3631 42.3552 57.372 42.072C56.3809 41.7889 55.5456 40.9251 54.8377 40.0756C54.4129 39.5093 54.1438 38.8013 53.8607 37.9518C50.6608 28.862 47.475 19.7864 44.4168 10.6965C44.0062 9.56385 43.7231 8.43127 43.4541 7.44016C43.1851 6.30748 43.4682 5.17475 43.9071 4.04207C44.4734 3.05096 45.3372 2.21566 46.3283 1.7909C47.461 1.3803 48.5936 1.38015 49.7263 1.81907C50.859 2.1164 51.6943 2.96593 52.4023 3.95703C52.827 4.66496 53.2377 5.51459 53.5209 6.37827C56.7207 15.3265 59.7648 24.2605 62.823 33.2087C63.2336 34.483 63.5169 35.8989 63.6443 36.7484L63.7859 36.4653V36.4511Z" fill="#102185"/>
<path d="M110.424 7.87893L107.309 28.678C107.012 30.8018 106.856 33.0672 106.276 35.0494C105.398 38.8722 103.26 40.557 100.301 40.1039C97.3417 39.6508 95.7984 36.9608 96.2373 33.2795C97.2851 25.4923 98.4601 17.8608 99.6494 10.0878C99.9468 8.24714 100.103 6.26494 100.541 4.42432C101.419 1.16784 103.543 -0.375541 106.233 0.0775345C108.782 0.516451 110.184 2.51284 110.297 5.76932V7.75156H110.424V7.89311V7.87893Z" fill="#102185"/>
<path d="M140.398 55.2252C136.859 55.1969 134.608 53.059 135.046 50.0857C135.202 48.8114 135.627 47.6787 136.349 46.5602C140.922 39.5092 145.651 32.4581 150.366 25.4213C151.088 24.2886 152.079 23.17 153.085 22.1789C153.934 21.471 154.94 20.9188 156.072 20.7773C157.205 20.7773 158.338 20.933 159.187 21.4994C160.178 22.2073 160.872 23.2126 161.155 24.2037C161.424 25.3364 161.424 26.4691 160.985 27.6018C160.702 28.1681 160.405 28.7344 160.122 29.3008C155.251 36.6349 150.394 43.8134 145.68 51.006C144.25 52.974 142.82 54.9563 140.554 55.0837L140.413 55.2252H140.398Z" fill="#102185"/>
<path d="M23.4479 54.5741C23.4196 58.9632 19.2994 61.4836 16.0571 59.3315C14.9244 58.4679 13.9475 57.4766 13.2537 56.2024C9.19018 49.2363 5.28232 42.1288 1.50196 35.0212C0.808183 33.8885 0.383451 32.7416 0.114436 31.4673C-0.168737 30.4762 0.128539 29.3436 0.411713 28.4941C0.836472 27.503 1.55858 26.8091 2.54968 26.2427C3.3992 25.6764 4.53186 25.5491 5.52297 25.6907C6.51407 25.8323 7.5052 26.4128 8.19897 27.1207C8.90691 27.6871 9.3176 28.5506 9.88394 29.2585C14.0749 36.7909 18.4216 44.4649 22.6126 52.1389C23.0373 52.8468 23.3063 53.6964 23.5894 54.5459H23.4479V54.5741Z" fill="#102185"/>
</svg>

<svg xmlns="http://www.w3.org/2000/svg" width="162" height="295" fill="none" viewBox="0 0 162 295"><path fill="#102185" d="M121.582 218.786c5.083 2.152 5.918 3.865 5.182 8.665s-1.487 10.18-1.94 15.277c-.453 3.681-1.175 6.782-5.295 8.169-.708.283-1.43 1.685-1.713 2.676-.581 2.407-1.161 4.8-1.459 7.207-.594 4.672-2.322 8.198-7.985 8.014l-.043 5.663c-.085 11.469-5.932 18.364-17.273 19.851-3.398.396-6.938.523-10.336.212-8.354-.481-14.116-5.338-16.34-13.422a44 44 0 0 1-1.23-5.961c0-.991-.27-1.982-.836-2.832-.567-.849-1.402-1.571-2.251-1.855-1.416-1.005-2.535-2.562-2.946-4.261-.835-2.407-1.387-4.97-1.925-7.377-.694-2.549-.949-5.239-3.78-6.683-.992-.849-1.685-1.996-1.813-3.27-1.373-5.395-2.62-10.775-3.85-16.028-.695-2.973.608-5.522 2.18-7.915.424-.849 1.854-1.118 3.27-1.812 0-1.274.014-2.407-.255-3.681-1.911-11.341-6.498-21.989-13.521-31.107-6.315-8.113-11.356-16.778-13.833-26.859-7.717-30.922-1.02-58.772 20.94-81.553 13.692-14.201 31.433-20.46 51.651-17.344 20.799 3.114 36.43 13.847 45.648 32.734 4.049 8.099 6.399 16.891 7.051 25.811.651 8.92-.552 17.982-3.441 26.59-3.61 11.299-9.628 21.451-14.796 32.041-3.015 5.791-5.606 11.851-7.914 17.925-2.308 6.924-1.374 14.003-.85 21.238l-.283-.142zm-19.114 1.146h2.407c5.522.057 6.385-1.076 5.989-6.598-.935-9.344.694-18.83 4.856-27.297 4.446-9.175 9.189-18.067 13.777-27.086 6.895-13.833 10.817-28.246 7.943-43.835-4.361-24.098-20.417-38.37-40.777-42.192-16.41-3.087-30.88 1.628-42.986 12.162-14.527 12.785-21.578 29.875-22.852 48.975-1.388 17.542 3.865 34.858 14.966 48.521 7.447 9.26 12.318 20.332 14.512 31.956.41 2.407.963 4.814 1.501 7.518l7.363-.509c-.255-3.682-.524-6.938-.638-10.053-.495-9.486-1.43-18.987-.368-28.459.014-2.124.737-4.247 1.883-6.215 1.147-1.827 2.719-3.526 4.56-4.644.849-.567 1.713-1.119 2.279-1.969a10.4 10.4 0 0 0 1.288-2.817c.878-4.106 1.473-8.34 2.068-12.446 0-.991 0-1.84-.411-2.831-7.504.651-11.327.354-14.994-1.657-6.202-3.157-8.297-9.401-4.998-15.603.722-1.415 1.713-2.817 2.86-3.808 1.147-1.119 2.563-1.827 4.12-2.379 1.558-.552 3.115-.694 4.814-.538 1.558 0 3.257.595 4.658 1.303 3.101 1.713 6.06 3.582 8.736 5.72.425-.567.864-1.133 1.147-1.685 1.147-2.818 2.308-5.649 3.313-8.609 1.006-2.973 3.427-4.502 6.258-3.922 2.69.723 3.95 2.719 3.78 5.834 0 .849-.297 1.699-.58 2.548a35.6 35.6 0 0 1-7.178 13.975c-.708.849-1.147 1.826-1.43 2.817a5.8 5.8 0 0 0-.014 3.115c.254 3.257.382 6.655-.071 9.911-.312 3.399-1.034 6.796-1.628 10.464 8.212.906 10.576 6.867 11.511 13.677.679 4.389.934 8.92 1.33 13.465.51 7.645.751 15.149 1.261 23.092l-.284.142zm13.663 9.713-60.189 2.846 2.62 11.2 56.082-2.733c.453-3.823 1.048-7.363 1.487-11.313m-24-9.783c-.509-8.496-.877-16.849-1.387-25.358-.254-3.54-.665-7.221-1.203-10.633-.128-1.133-.963-3.115-1.67-3.129-2.691-.298-5.381-.185-7.93.367-1.982.553-1.996 2.818-2.01 4.517-.043 6.372-.085 12.884.155 19.256.241 5.38.78 10.902 1.303 16.296l12.757-1.33zm5.041 49.725-24.508 1.387c.552 2.832.962 5.097 1.5 7.518.27 1.558.977 2.974 2.096 3.979 1.133 1.005 2.676 1.572 4.233 1.727 3.965.029 7.93.057 11.894-.481 1.132-.127 2.265-.694 3.129-1.529a6.1 6.1 0 0 0 1.713-2.959 14.15 14.15 0 0 0 .07-9.628h-.14zm-31.092-8.283 40.225-2.421 1.331-7.348-43.623 2.109 1.925 7.66zm2.237-120.617c1.133.863 2.251 1.288 3.667 1.586 1.274.155 2.69.014 3.823-.538-3.653-4.135-5.352-4.291-7.362-1.048h-.142zM63.786 36.451c-.014 3.115-1.161 5.083-3.299 5.635a5.8 5.8 0 0 1-3.115-.014c-.991-.283-1.826-1.147-2.534-1.996-.425-.567-.694-1.275-.977-2.124-3.2-9.09-6.386-18.166-9.444-27.255-.41-1.133-.694-2.266-.963-3.257-.269-1.133.014-2.265.453-3.398.566-.991 1.43-1.826 2.421-2.251 1.133-.41 2.266-.41 3.398.028 1.133.297 1.968 1.147 2.676 2.138.425.708.836 1.558 1.119 2.421 3.2 8.949 6.244 17.883 9.302 26.83.41 1.275.694 2.69.821 3.54l.142-.283zM110.424 7.879l-3.115 20.799c-.297 2.124-.453 4.39-1.033 6.371-.878 3.823-3.016 5.508-5.975 5.055-2.96-.453-4.503-3.143-4.064-6.824 1.048-7.788 2.223-15.42 3.412-23.192.298-1.84.454-3.823.892-5.664.878-3.256 3.002-4.8 5.692-4.346 2.549.438 3.951 2.435 4.064 5.691v1.983h.127v.141zM140.398 55.225c-3.539-.028-5.79-2.166-5.352-5.14.156-1.274.581-2.406 1.303-3.525 4.573-7.05 9.302-14.102 14.017-21.139.722-1.132 1.713-2.251 2.719-3.242.849-.708 1.855-1.26 2.987-1.402 1.133 0 2.266.156 3.115.722.991.708 1.685 1.714 1.968 2.705.269 1.132.269 2.265-.17 3.398-.283.566-.58 1.132-.863 1.699-4.871 7.334-9.728 14.512-14.442 21.705-1.43 1.968-2.86 3.95-5.126 4.078l-.141.141zM23.448 54.574c-.028 4.39-4.149 6.91-7.39 4.758-1.134-.864-2.11-1.855-2.804-3.13C9.19 49.236 5.282 42.13 1.502 35.022.808 33.888.383 32.741.114 31.466c-.283-.99.015-2.123.298-2.973.424-.991 1.147-1.685 2.138-2.251.85-.567 1.982-.694 2.973-.552s1.982.722 2.676 1.43c.708.566 1.119 1.43 1.685 2.138 4.19 7.532 8.538 15.206 12.729 22.88.424.708.693 1.557.976 2.407h-.141z"/></svg>
